public/images/project-ux-research-workingbrain/logoworkingbrain-white.svg

<svg width="490" height="512" viewBox="0 0 490 512" fill="none" xmlns="http://www.w3.org/2000/svg">
<path d="M77.9665 209.471L232.967 295.971L157.967 344.471L1.25724 252.873L77.9665 209.471Z" fill="#FAF6F6"/>
<path d="M84.9669 316.971L157.967 358.471L240.467 308.971L238.967 391.471L238.967 427.471C246.051 439.208 252.967 437.971 259.967 423.971C266.967 409.971 411.967 371.471 411.967 371.471L249.194 462.739L85.9669 371.471L84.9669 316.971Z" fill="#FAF6F6"/>
<path d="M337.678 342.118L489.967 253.971L418.967 210.472L263.967 295.971L337.678 342.118Z" fill="#FAF6F6"/>
<path d="M255.967 308.471L338.467 359.471L410.967 317.971V371.471L255.967 448.971C257.077 433.182 256.294 374.863 255.967 308.471Z" fill="#FAF6F6"/>
<path d="M248.362 5.47146L266.467 14.9712C210.574 45.484 169.765 69.8426 101.967 109.471L101.967 92.3898L248.362 5.47146Z" fill="#FAF6F6"/>
<path d="M393.74 87.8411L392.108 111.036C341.513 78.9904 302.639 56.9689 238.834 19.8268L254.715 8.53323L393.74 87.8411Z" fill="#FAF6F6"/>
<path d="M393.891 180.001L373.058 185.715C375.121 154.53 374.463 131.29 374.244 92.8694L392.014 96.736L393.891 180.001Z" fill="#FAF6F6"/>
<path d="M120.891 180.002L100.058 185.715C102.121 154.53 101.463 131.29 101.244 92.8697L119.014 96.7362L120.891 180.002Z" fill="#FAF6F6"/>
<path d="M393.967 162.971L422.891 180.405L247.493 275.864L226.467 263.971C303.967 219.471 367.909 190.982 393.967 162.971Z" fill="#FAF6F6"/>
<path d="M105.199 159.073L72.9668 179.471L238.158 271.12L259.907 256.682C188.114 213.943 128.101 187.617 105.199 159.073Z" fill="#FAF6F6"/>
<path d="M245.967 218.471L212.967 238.471" stroke="#FAF6F6" stroke-width="15" stroke-linecap="round"/>
<path d="M279.967 238.471L250.967 218.471" stroke="#FAF6F6" stroke-width="15" stroke-linecap="round"/>
<path d="M350.967 199.471L315.967 175.471" stroke="#FAF6F6" stroke-width="15" stroke-linecap="round"/>
<path d="M179.427 176.471L143.967 199.786" stroke="#FAF6F6" stroke-width="15" stroke-linecap="round"/>
<path d="M248 104V139" stroke="#FAF6F6" stroke-width="15" stroke-linecap="round"/>
<path d="M205.967 81.4712L245.476 101.789" stroke="#FAF6F6" stroke-width="15" stroke-linecap="round"/>
<path d="M253 141L292.509 161.318" stroke="#FAF6F6" stroke-width="15" stroke-linecap="round"/>
<path d="M247.967 175.471L287.476 195.789" stroke="#FAF6F6" stroke-width="15" stroke-linecap="round"/>
<path d="M289.967 78.4712L250.967 101.471" stroke="#FAF6F6" stroke-width="15" stroke-linecap="round"/>
<path d="M246 139L207 162" stroke="#FAF6F6" stroke-width="15" stroke-linecap="round"/>
<path d="M245.967 175.471L206.967 198.471" stroke="#FAF6F6" stroke-width="15" stroke-linecap="round"/>
<path d="M245.967 175.471L206.967 198.471" stroke="#FAF6F6" stroke-width="15" stroke-linecap="round"/>
<path d="M247.945 214.971L247.945 206.971" stroke="#FAF6F6" stroke-width="15" stroke-linecap="round"/>
<path d="M345.322 158.461L344.967 119.471" stroke="#FAF6F6" stroke-width="15" stroke-linecap="round"/>
<path d="M147.322 158.461L146.967 119.471" stroke="#FAF6F6" stroke-width="15" stroke-linecap="round"/>
<path d="M285.967 122.471L341.967 78.4712" stroke="#FAF6F6" stroke-width="15" stroke-linecap="round"/>
<path d="M299.967 121.471L317.967 142.471" stroke="#FAF6F6" stroke-width="15" stroke-linecap="round"/>
<path d="M289.967 43.4712L273.967 57.4712" stroke="#FAF6F6" stroke-width="15" stroke-linecap="round"/>
<path d="M248.363 5.47146L266.467 14.9712C210.574 45.484 169.766 69.8426 101.967 109.471L101.967 92.3898L248.363 5.47146Z" fill="#FAF6F6"/>
<path d="M393.74 87.8411L392.108 111.036C341.513 78.9904 302.639 56.9689 238.834 19.8268L254.715 8.53323L393.74 87.8411Z" fill="#FAF6F6"/>
<path d="M393.891 180.001L373.058 185.715C375.121 154.53 374.463 131.29 374.244 92.8694L392.014 96.736L393.891 180.001Z" fill="#FAF6F6"/>
<path d="M120.891 180.002L100.058 185.715C102.121 154.53 101.463 131.29 101.244 92.8697L119.014 96.7362L120.891 180.002Z" fill="#FAF6F6"/>
<path d="M393.967 162.971L422.891 180.405L247.493 275.864L226.467 263.971C303.967 219.471 367.909 190.982 393.967 162.971Z" fill="#FAF6F6"/>
<path d="M105.199 159.073L72.9668 179.471L238.158 271.12L259.907 256.682C188.114 213.943 128.101 187.617 105.199 159.073Z" fill="#FAF6F6"/>
<path d="M245.967 218.471L212.967 238.471" stroke="#FAF6F6" stroke-width="15" stroke-linecap="round"/>
<path d="M279.967 238.471L250.967 218.471" stroke="#FAF6F6" stroke-width="15" stroke-linecap="round"/>
<path d="M350.967 199.471L315.967 175.471" stroke="#FAF6F6" stroke-width="15" stroke-linecap="round"/>
<path d="M179.427 176.471L143.967 199.786" stroke="#FAF6F6" stroke-width="15" stroke-linecap="round"/>
<path d="M205.967 81.4712L245.476 101.789" stroke="#FAF6F6" stroke-width="15" stroke-linecap="round"/>
<path d="M247.967 175.471L287.476 195.789" stroke="#FAF6F6" stroke-width="15" stroke-linecap="round"/>
<path d="M289.967 78.4712L250.967 101.471" stroke="#FAF6F6" stroke-width="15" stroke-linecap="round"/>
<path d="M245.967 175.471L206.967 198.471" stroke="#FAF6F6" stroke-width="15" stroke-linecap="round"/>
<path d="M245.967 175.471L206.967 198.471" stroke="#FAF6F6" stroke-width="15" stroke-linecap="round"/>
<path d="M247.945 214.971L247.945 206.971" stroke="#FAF6F6" stroke-width="15" stroke-linecap="round"/>
<path d="M345.322 158.461L344.967 119.471" stroke="#FAF6F6" stroke-width="15" stroke-linecap="round"/>
<path d="M147.322 158.461L146.967 119.471" stroke="#FAF6F6" stroke-width="15" stroke-linecap="round"/>
<path d="M285.967 122.471L341.967 78.4712" stroke="#FAF6F6" stroke-width="15" stroke-linecap="round"/>
<path d="M299.967 121.471L317.967 142.471" stroke="#FAF6F6" stroke-width="15" stroke-linecap="round"/>
<path d="M289.967 43.4712L273.967 57.4712" stroke="#FAF6F6" stroke-width="15" stroke-linecap="round"/>
<path d="M222.831 59.5894L208.967 43.4712" stroke="#FAF6F6" stroke-width="15" stroke-linecap="round"/>
<circle cx="200.967" cy="201.471" r="10" fill="#FAF6F6"/>
<circle cx="247.967" cy="61.4712" r="10" fill="#FAF6F6"/>
<circle cx="205.967" cy="80.4712" r="10" fill="#FAF6F6"/>
<circle cx="290.967" cy="78.4712" r="10" fill="#FAF6F6"/>
<circle cx="344.967" cy="116.471" r="10" fill="#FAF6F6"/>
<circle cx="344.967" cy="158.471" r="10" fill="#FAF6F6"/>
<circle cx="146.967" cy="158.471" r="10" fill="#FAF6F6"/>
<circle cx="146.967" cy="119.471" r="10" fill="#FAF6F6"/>
<circle cx="291.967" cy="199.471" r="10" fill="#FAF6F6"/>
<path d="M210.967 121.471L146.967 78.4712" stroke="#FAF6F6" stroke-width="15" stroke-linecap="round"/>
<path d="M178.967 142.471L196.967 114.471" stroke="#FAF6F6" stroke-width="15" stroke-linecap="round"/>
<path d="M222.831 59.5894L208.967 43.4712" stroke="#FAF6F6" stroke-width="15" stroke-linecap="round"/>
<circle cx="200.967" cy="201.471" r="10" fill="#FAF6F6"/>
<circle cx="291.967" cy="199.471" r="10" fill="#FAF6F6"/>
<path d="M210.967 121.471L146.967 78.4712" stroke="#FAF6F6" stroke-width="15" stroke-linecap="round"/>
<path d="M178.967 142.471L196.967 114.471" stroke="#FAF6F6" stroke-width="15" stroke-linecap="round"/>
</svg>

<svg width="490" height="512" fill="none" xmlns="http://www.w3.org/2000/svg"><path d="m77.966 209.471 155.001 86.5-75 48.5-156.71-91.598 76.71-43.402z" fill="#FAF6F6"/><path d="m84.967 316.971 73 41.5 82.5-49.5-1.5 82.5v36c7.084 11.737 14 10.5 21-3.5s152-52.5 152-52.5l-162.773 91.268-163.227-91.268-1-54.5zM337.678 342.118l152.289-88.147-71-43.499-155 85.499 73.711 46.147z" fill="#FAF6F6"/><path d="m255.967 308.471 82.5 51 72.5-41.5v53.5l-155 77.5c1.11-15.789.327-74.108 0-140.5zM248.362 5.471l18.105 9.5c-55.893 30.513-96.702 54.872-164.5 94.5V92.39L248.362 5.47z" fill="#FAF6F6"/><path d="m393.74 87.841-1.632 23.195c-50.595-32.046-89.469-54.067-153.274-91.21l15.881-11.293L393.74 87.841z" fill="#FAF6F6"/><path d="m393.891 180.001-20.833 5.714c2.063-31.185 1.405-54.425 1.186-92.846l17.77 3.867 1.877 83.265zM120.891 180.002l-20.833 5.713c2.063-31.185 1.405-54.425 1.186-92.845l17.77 3.866 1.877 83.266z" fill="#FAF6F6"/><path d="m393.967 162.971 28.924 17.434-175.398 95.459-21.026-11.893c77.5-44.5 141.442-72.989 167.5-101z" fill="#FAF6F6"/><path d="m105.199 159.073-32.232 20.398 165.191 91.649 21.749-14.438c-71.793-42.739-131.806-69.065-154.708-97.609z" fill="#FAF6F6"/><path d="m245.967 218.471-33 20M279.967 238.471l-29-20M350.967 199.471l-35-24M179.427 176.471l-35.46 23.315M248 104v35M205.967 81.471l39.509 20.318M253 141l39.509 20.318M247.967 175.471l39.509 20.318M289.967 78.471l-39 23M246 139l-39 23M245.967 175.471l-39 23M245.967 175.471l-39 23M247.945 214.971v-8M345.322 158.461l-.355-38.99M147.322 158.461l-.355-38.99M285.967 122.471l56-44M299.967 121.471l18 21M289.967 43.471l-16 14" stroke="#FAF6F6" stroke-width="15" stroke-linecap="round"/><path d="m248.363 5.471 18.104 9.5c-55.893 30.513-96.701 54.872-164.5 94.5V92.39L248.363 5.47z" fill="#FAF6F6"/><path d="m393.74 87.841-1.632 23.195c-50.595-32.046-89.469-54.067-153.274-91.21l15.881-11.293L393.74 87.841z" fill="#FAF6F6"/><path d="m393.891 180.001-20.833 5.714c2.063-31.185 1.405-54.425 1.186-92.846l17.77 3.867 1.877 83.265zM120.891 180.002l-20.833 5.713c2.063-31.185 1.405-54.425 1.186-92.845l17.77 3.866 1.877 83.266z" fill="#FAF6F6"/><path d="m393.967 162.971 28.924 17.434-175.398 95.459-21.026-11.893c77.5-44.5 141.442-72.989 167.5-101z" fill="#FAF6F6"/><path d="m105.199 159.073-32.232 20.398 165.191 91.649 21.749-14.438c-71.793-42.739-131.806-69.065-154.708-97.609z" fill="#FAF6F6"/><path d="m245.967 218.471-33 20M279.967 238.471l-29-20M350.967 199.471l-35-24M179.427 176.471l-35.46 23.315M205.967 81.471l39.509 20.318M247.967 175.471l39.509 20.318M289.967 78.471l-39 23M245.967 175.471l-39 23M245.967 175.471l-39 23M247.945 214.971v-8M345.322 158.461l-.355-38.99M147.322 158.461l-.355-38.99M285.967 122.471l56-44M299.967 121.471l18 21M289.967 43.471l-16 14M222.831 59.59 208.967 43.47" stroke="#FAF6F6" stroke-width="15" stroke-linecap="round"/><circle cx="200.967" cy="201.471" r="10" fill="#FAF6F6"/><circle cx="247.967" cy="61.471" r="10" fill="#FAF6F6"/><circle cx="205.967" cy="80.471" r="10" fill="#FAF6F6"/><circle cx="290.967" cy="78.471" r="10" fill="#FAF6F6"/><circle cx="344.967" cy="116.471" r="10" fill="#FAF6F6"/><circle cx="344.967" cy="158.471" r="10" fill="#FAF6F6"/><circle cx="146.967" cy="158.471" r="10" fill="#FAF6F6"/><circle cx="146.967" cy="119.471" r="10" fill="#FAF6F6"/><circle cx="291.967" cy="199.471" r="10" fill="#FAF6F6"/><path d="m210.967 121.471-64-43M178.967 142.471l18-28M222.831 59.59 208.967 43.47" stroke="#FAF6F6" stroke-width="15" stroke-linecap="round"/><circle cx="200.967" cy="201.471" r="10" fill="#FAF6F6"/><circle cx="291.967" cy="199.471" r="10" fill="#FAF6F6"/><path d="m210.967 121.471-64-43M178.967 142.471l18-28" stroke="#FAF6F6" stroke-width="15" stroke-linecap="round"/></svg>
